X: 14207
T: Fuck The Tories
R: reel
M: 4/4
K: Gmajor
A GABc|"G" d2de "D" dcBA|"G" GABG D2EF|G2GA GABc|"D"d2A2 dcBA|
" C"G2E/G/E DEGB|"Am" A2A2 "C" G2E/A/E|DEGB "D" A2A2|"G" G3:|
|:A B2"C"c2-|cdcd cBAB|cd "G" B2 G2B2|"C" c3d cdcB|"D" A/c/AD2 BcBA|
" C"G2E/G/E DEGB|"Am" A2A2 "C" G2E/A/E|DEGB "D" A2A2|"G" G3:|

